static/img/kroki/c2194bce7eef0a1ac79cf61aca9e15fc.svg

<?xml version="1.0" encoding="us-ascii" standalone="no"?><svg xmlns="http://www.w3.org/2000/svg" xmlns:xlink="http://www.w3.org/1999/xlink" contentStyleType="text/css" height="352px" preserveAspectRatio="none" style="width:329px;height:352px;" version="1.1" viewBox="0 0 329 352" width="329px" zoomAndPan="magnify"><defs/><g><!--class aws_ec2_instance--><g id="elem_aws_ec2_instance"><rect codeLine="23" fill="#3D176E" height="39.7891" id="aws_ec2_instance" rx="2.5" ry="2.5" style="stroke:#000D19;stroke-width:0.5;" width="192" x="7" y="306.37"/><ellipse cx="22" cy="326.2645" fill="#ADD1B2" rx="11" ry="11" style="stroke:#181818;stroke-width:1.0;"/><path d="M24.9688,331.9052 Q24.3906,332.202 23.75,332.3427 Q23.1094,332.4989 22.4063,332.4989 Q19.9063,332.4989 18.5781,330.8583 Q17.2656,329.202 17.2656,326.077 Q17.2656,322.952 18.5781,321.2958 Q19.9063,319.6395 22.4063,319.6395 Q23.1094,319.6395 23.75,319.7958 Q24.4063,319.952 24.9688,320.2489 L24.9688,322.9677 Q24.3438,322.3895 23.75,322.1239 Q23.1563,321.8427 22.5313,321.8427 Q21.1875,321.8427 20.5,322.9208 Q19.8125,323.9833 19.8125,326.077 Q19.8125,328.1708 20.5,329.2489 Q21.1875,330.3114 22.5313,330.3114 Q23.1563,330.3114 23.75,330.0458 Q24.3438,329.7645 24.9688,329.1864 L24.9688,331.9052 Z " fill="#000000"/><text fill="#D9B8FF" font-family="Helvetica" font-size="17" lengthAdjust="spacing" textLength="150" x="41" y="332.1498">aws_ec2_instance</text></g><!--class aws_iam_instance_profile--><g id="elem_aws_iam_instance_profile"><rect codeLine="26" fill="#3D176E" height="39.7891" id="aws_iam_instance_profile" rx="2.5" ry="2.5" style="stroke:#000D19;stroke-width:0.5;" width="257" x="65.5" y="206.58"/><ellipse cx="80.5" cy="226.4745" fill="#ADD1B2" rx="11" ry="11" style="stroke:#181818;stroke-width:1.0;"/><path d="M83.4688,232.1152 Q82.8906,232.412 82.25,232.5527 Q81.6094,232.7089 80.9063,232.7089 Q78.4063,232.7089 77.0781,231.0683 Q75.7656,229.412 75.7656,226.287 Q75.7656,223.162 77.0781,221.5058 Q78.4063,219.8495 80.9063,219.8495 Q81.6094,219.8495 82.25,220.0058 Q82.9063,220.162 83.4688,220.4589 L83.4688,223.1777 Q82.8438,222.5995 82.25,222.3339 Q81.6563,222.0527 81.0313,222.0527 Q79.6875,222.0527 79,223.1308 Q78.3125,224.1933 78.3125,226.287 Q78.3125,228.3808 79,229.4589 Q79.6875,230.5214 81.0313,230.5214 Q81.6563,230.5214 82.25,230.2558 Q82.8438,229.9745 83.4688,229.3964 L83.4688,232.1152 Z " fill="#000000"/><text fill="#D9B8FF" font-family="Helvetica" font-size="17" lengthAdjust="spacing" textLength="215" x="99.5" y="232.3598">aws_iam_instance_profile</text></g><!--class aws_iam_role--><g id="elem_aws_iam_role"><rect codeLine="29" fill="#3D176E" height="39.7891" id="aws_iam_role" rx="2.5" ry="2.5" style="stroke:#000D19;stroke-width:0.5;" width="157" x="137.5" y="106.79"/><ellipse cx="152.5" cy="126.6845" fill="#ADD1B2" rx="11" ry="11" style="stroke:#181818;stroke-width:1.0;"/><path d="M155.4688,132.3252 Q154.8906,132.622 154.25,132.7627 Q153.6094,132.9189 152.9063,132.9189 Q150.4063,132.9189 149.0781,131.2783 Q147.7656,129.622 147.7656,126.497 Q147.7656,123.372 149.0781,121.7158 Q150.4063,120.0595 152.9063,120.0595 Q153.6094,120.0595 154.25,120.2158 Q154.9063,120.372 155.4688,120.6689 L155.4688,123.3877 Q154.8438,122.8095 154.25,122.5439 Q153.6563,122.2627 153.0313,122.2627 Q151.6875,122.2627 151,123.3408 Q150.3125,124.4033 150.3125,126.497 Q150.3125,128.5908 151,129.6689 Q151.6875,130.7314 153.0313,130.7314 Q153.6563,130.7314 154.25,130.4658 Q154.8438,130.1845 155.4688,129.6064 L155.4688,132.3252 Z " fill="#000000"/><text fill="#D9B8FF" font-family="Helvetica" font-size="17" lengthAdjust="spacing" textLength="115" x="171.5" y="132.5698">aws_iam_role</text></g><!--class aws_region--><g id="elem_aws_region"><rect codeLine="32" fill="#3D176E" height="39.7891" id="aws_region" rx="2.5" ry="2.5" style="stroke:#000D19;stroke-width:0.5;" width="137" x="15.5" y="7"/><ellipse cx="30.5" cy="26.8945" fill="#ADD1B2" rx="11" ry="11" style="stroke:#181818;stroke-width:1.0;"/><path d="M33.4688,32.5352 Q32.8906,32.832 32.25,32.9727 Q31.6094,33.1289 30.9063,33.1289 Q28.4063,33.1289 27.0781,31.4883 Q25.7656,29.832 25.7656,26.707 Q25.7656,23.582 27.0781,21.9258 Q28.4063,20.2695 30.9063,20.2695 Q31.6094,20.2695 32.25,20.4258 Q32.9063,20.582 33.4688,20.8789 L33.4688,23.5977 Q32.8438,23.0195 32.25,22.7539 Q31.6563,22.4727 31.0313,22.4727 Q29.6875,22.4727 29,23.5508 Q28.3125,24.6133 28.3125,26.707 Q28.3125,28.8008 29,29.8789 Q29.6875,30.9414 31.0313,30.9414 Q31.6563,30.9414 32.25,30.6758 Q32.8438,30.3945 33.4688,29.8164 L33.4688,32.5352 Z " fill="#000000"/><text fill="#D9B8FF" font-family="Helvetica" font-size="17" lengthAdjust="spacing" textLength="95" x="49.5" y="32.7798">aws_region</text></g><!--link aws_iam_instance_profile to aws_ec2_instance--><g id="link_aws_iam_instance_profile_aws_ec2_instance"><path codeLine="35" d="M176.02,246.8 C160.07,263.94 140.966,284.4563 125.026,301.5963 " fill="none" id="aws_iam_instance_profile-to-aws_ec2_instance" style="stroke:#1A83AF;stroke-width:2.0;"/><polygon fill="#1A83AF" points="120.94,305.99,129.9982,302.1235,124.345,302.3286,124.14,296.6755,120.94,305.99" style="stroke:#1A83AF;stroke-width:2.0;"/></g><!--link aws_iam_role to aws_iam_instance_profile--><g id="link_aws_iam_role_aws_iam_instance_profile"><path codeLine="36" d="M211.65,147.01 C207.8,164.15 203.505,183.2059 199.655,200.3459 " fill="none" id="aws_iam_role-to-aws_iam_instance_profile" style="stroke:#1A83AF;stroke-width:2.0;"/><polygon fill="#1A83AF" points="198.34,206.2,204.2152,198.2954,199.4358,201.3216,196.4097,196.5422,198.34,206.2" style="stroke:#1A83AF;stroke-width:2.0;"/></g><!--link aws_region to aws_ec2_instance--><g id="link_aws_region_aws_ec2_instance"><path codeLine="37" d="M75.02,47.02 C58.18,85.53 25.53,174.86 48,246.37 C55.16,269.15 67.5397,286.5752 80.5497,301.5152 " fill="none" id="aws_region-to-aws_ec2_instance" style="stroke:#1A83AF;stroke-width:2.0;"/><polygon fill="#1A83AF" points="84.49,306.04,81.5961,296.6259,81.2064,302.2693,75.563,301.8796,84.49,306.04" style="stroke:#1A83AF;stroke-width:2.0;"/></g><!--link aws_region to aws_iam_instance_profile--><g id="link_aws_region_aws_iam_instance_profile"><path codeLine="38" d="M87.02,47.06 C91.47,71.47 101.36,114.33 120,146.58 C133.34,169.67 150.2029,187.3922 166.5329,202.1822 " fill="none" id="aws_region-to-aws_iam_instance_profile" style="stroke:#1A83AF;stroke-width:2.0;"/><polygon fill="#1A83AF" points="170.98,206.21,166.9944,197.2036,167.274,202.8535,161.6241,203.1331,170.98,206.21" style="stroke:#1A83AF;stroke-width:2.0;"/></g><!--link aws_region to aws_iam_role--><g id="link_aws_region_aws_iam_role"><path codeLine="39" d="M110.08,47.22 C133.22,64.36 162.0283,85.7091 185.1583,102.8391 " fill="none" id="aws_region-to-aws_iam_role" style="stroke:#1A83AF;stroke-width:2.0;"/><polygon fill="#1A83AF" points="189.98,106.41,185.1281,97.8392,185.9619,103.4342,180.3669,104.2681,189.98,106.41" style="stroke:#1A83AF;stroke-width:2.0;"/></g><!--SRC=[bP11Qy9048Nl-oiMF0k9eLKlXLIGzYAbzbQAZDdPk9ZiXjcrOal_UvkcoffDb5xV-tZlpMoKG8vbvGwyn7ADP9dTAbq1GSbJ8hEVcS8G7qW9CXctpRdHxYgmW1Bv0nRlw5G6RU9bexAjHclvoBFk8TlcP7PQDF6EGDiV2xNpg5a1rgREaLhl77fZn7GzaR9DjaC7YOZ7jnXWXWJI7n95aOYdRUHgrSMxJyHIVI2F_QSjZCDWPb3nIrrSMHFUoE3Gez-xyGc4K3hdDvxst6mYZNIcBpSWpBwc9HJMhx4E2OqxL3WBhiBfHCXn9_pO1xEiVXs7lLrXDbefRHte3FadOr-Ufw0yUQkAZ5H59qCcr0bpPNIZzcODNmTnEadI-TlmBbZ3pk83j2kGUStNi_l0VoSVHx9l]--></g></svg>

<svg xmlns="http://www.w3.org/2000/svg" width="329" height="352" viewBox="0 0 329 352"><rect width="192" height="39.789" x="7" y="306.37" fill="#3D176E" rx="2.5" ry="2.5" style="stroke:#000d19;stroke-width:.5"/><circle cx="22" cy="326.264" r="11" fill="#ADD1B2" style="stroke:#181818;stroke-width:1"/><path d="M24.969 331.905q-.578.297-1.219.438-.64.156-1.344.156-2.5 0-3.828-1.64-1.312-1.657-1.312-4.782t1.312-4.781q1.328-1.656 3.828-1.656.703 0 1.344.156.656.156 1.219.453v2.719q-.625-.579-1.219-.844-.594-.281-1.219-.281-1.343 0-2.031 1.078-.687 1.062-.687 3.156t.687 3.172q.688 1.062 2.031 1.062.625 0 1.219-.265.594-.281 1.219-.86z"/><text x="41" y="332.15" fill="#D9B8FF" font-family="Helvetica" font-size="17" textLength="150">aws_ec2_instance</text><rect width="257" height="39.789" x="65.5" y="206.58" fill="#3D176E" rx="2.5" ry="2.5" style="stroke:#000d19;stroke-width:.5"/><circle cx="80.5" cy="226.475" r="11" fill="#ADD1B2" style="stroke:#181818;stroke-width:1"/><path d="M83.469 232.115q-.578.297-1.219.438-.64.156-1.344.156-2.5 0-3.828-1.64-1.312-1.657-1.312-4.782t1.312-4.781q1.328-1.656 3.828-1.656.703 0 1.344.156.656.156 1.219.453v2.719q-.625-.578-1.219-.844-.594-.281-1.219-.281-1.344 0-2.031 1.078-.687 1.062-.687 3.156t.687 3.172q.688 1.062 2.031 1.062.625 0 1.219-.265.594-.281 1.219-.86z"/><text x="99.5" y="232.36" fill="#D9B8FF" font-family="Helvetica" font-size="17" textLength="215">aws_iam_instance_profile</text><rect width="157" height="39.789" x="137.5" y="106.79" fill="#3D176E" rx="2.5" ry="2.5" style="stroke:#000d19;stroke-width:.5"/><circle cx="152.5" cy="126.684" r="11" fill="#ADD1B2" style="stroke:#181818;stroke-width:1"/><path d="M155.469 132.325q-.578.297-1.219.438-.64.156-1.344.156-2.5 0-3.828-1.64-1.312-1.657-1.312-4.782t1.312-4.781q1.328-1.656 3.828-1.656.703 0 1.344.156.656.156 1.219.453v2.719q-.625-.579-1.219-.844-.594-.281-1.219-.281-1.344 0-2.031 1.078-.687 1.062-.687 3.156t.687 3.172q.688 1.062 2.031 1.062.625 0 1.219-.265.594-.281 1.219-.86z"/><text x="171.5" y="132.57" fill="#D9B8FF" font-family="Helvetica" font-size="17" textLength="115">aws_iam_role</text><rect width="137" height="39.789" x="15.5" y="7" fill="#3D176E" rx="2.5" ry="2.5" style="stroke:#000d19;stroke-width:.5"/><circle cx="30.5" cy="26.895" r="11" fill="#ADD1B2" style="stroke:#181818;stroke-width:1"/><path d="M33.469 32.535q-.578.297-1.219.438-.64.156-1.344.156-2.5 0-3.828-1.64-1.312-1.657-1.312-4.782t1.312-4.781q1.328-1.656 3.828-1.656.703 0 1.344.156.656.156 1.219.453v2.719q-.625-.578-1.219-.844-.594-.281-1.219-.281-1.343 0-2.031 1.078-.687 1.062-.687 3.156T29 29.879q.688 1.062 2.031 1.062.625 0 1.219-.265.594-.281 1.219-.86z"/><text x="49.5" y="32.78" fill="#D9B8FF" font-family="Helvetica" font-size="17" textLength="95">aws_region</text><path fill="none" d="M176.02 246.8c-15.95 17.14-35.054 37.656-50.994 54.796" style="stroke:#1a83af;stroke-width:2"/><path fill="#1A83AF" d="m120.94 305.99 9.058-3.867-5.653.206-.205-5.654z" style="stroke:#1a83af;stroke-width:2"/><path fill="none" d="M211.65 147.01c-3.85 17.14-8.145 36.196-11.995 53.336" style="stroke:#1a83af;stroke-width:2"/><path fill="#1A83AF" d="m198.34 206.2 5.875-7.905-4.78 3.027-3.025-4.78z" style="stroke:#1a83af;stroke-width:2"/><path fill="none" d="M75.02 47.02C58.18 85.53 25.53 174.86 48 246.37c7.16 22.78 19.54 40.205 32.55 55.145" style="stroke:#1a83af;stroke-width:2"/><path fill="#1A83AF" d="m84.49 306.04-2.894-9.414-.39 5.643-5.643-.39z" style="stroke:#1a83af;stroke-width:2"/><path fill="none" d="M87.02 47.06c4.45 24.41 14.34 67.27 32.98 99.52 13.34 23.09 30.203 40.812 46.533 55.602" style="stroke:#1a83af;stroke-width:2"/><path fill="#1A83AF" d="m170.98 206.21-3.986-9.006.28 5.65-5.65.28z" style="stroke:#1a83af;stroke-width:2"/><path fill="none" d="M110.08 47.22c23.14 17.14 51.948 38.49 75.078 55.62" style="stroke:#1a83af;stroke-width:2"/><path fill="#1A83AF" d="m189.98 106.41-4.852-8.57.834 5.594-5.595.834z" style="stroke:#1a83af;stroke-width:2"/></svg>
